modules/hawcons-filled/icons/cloud-rain.svg

<?xml version="1.0" encoding="UTF-8" standalone="no"?>
<svg width="32px" height="32px" viewBox="0 0 32 32" version="1.1" xmlns="http://www.w3.org/2000/svg" xmlns:xlink="http://www.w3.org/1999/xlink" xmlns:sketch="http://www.bohemiancoding.com/sketch/ns">
    <!-- Generator: Sketch 3.0.3 (7891) - http://www.bohemiancoding.com/sketch -->
    <title>icon 4 cloud rain</title>
    <desc>Created with Sketch.</desc>
    <defs></defs>
    <g id="Page-1" stroke="none" stroke-width="1" fill="none" fill-rule="evenodd" sketch:type="MSPage">
        <g id="icon-4-cloud-rain" sketch:type="MSArtboardGroup" fill="#929292">
            <path d="M26.9993494,14.4145295 C28.7676457,15.1852931 30,16.9483386 30,19 C30,21.7558048 27.7616745,24 25.0005601,24 L7.99943992,24 C5.23249418,24 3,21.7614237 3,19 C3,16.9491311 4.23965876,15.1816085 6.01189661,14.4115388 L6.01189661,14.4115388 C6.00400207,14.275367 6,14.1381509 6,14 C6,10.1340066 9.13400656,7 13,7 C15.2979469,7 17.3372745,8.10728055 18.6135384,9.81739735 C19.4525719,9.29909701 20.441357,9 21.5,9 C24.5090248,9 26.9536744,11.4163763 26.9993494,14.4145295 L26.9993494,14.4145295 L26.9993494,14.4145295 Z M10.5,25 C10.2238576,25 10,25.2157526 10,25.495389 L10,27.504611 C10,27.7782068 10.2319336,28 10.5,28 C10.7761424,28 11,27.7842474 11,27.504611 L11,25.495389 C11,25.2217932 10.7680664,25 10.5,25 L10.5,25 Z M13.5,27 C13.2238576,27 13,27.2157526 13,27.495389 L13,29.504611 C13,29.7782068 13.2319336,30 13.5,30 C13.7761424,30 14,29.7842474 14,29.504611 L14,27.495389 C14,27.2217932 13.7680664,27 13.5,27 L13.5,27 Z M16.5,25 C16.2238576,25 16,25.2157526 16,25.495389 L16,27.504611 C16,27.7782068 16.2319336,28 16.5,28 C16.7761424,28 17,27.7842474 17,27.504611 L17,25.495389 C17,25.2217932 16.7680664,25 16.5,25 L16.5,25 Z M19.5,27 C19.2238576,27 19,27.2157526 19,27.495389 L19,29.504611 C19,29.7782068 19.2319336,30 19.5,30 C19.7761424,30 20,29.7842474 20,29.504611 L20,27.495389 C20,27.2217932 19.7680664,27 19.5,27 L19.5,27 Z M22.5,25 C22.2238576,25 22,25.2157526 22,25.495389 L22,27.504611 C22,27.7782068 22.2319336,28 22.5,28 C22.7761424,28 23,27.7842474 23,27.504611 L23,25.495389 C23,25.2217932 22.7680664,25 22.5,25 L22.5,25 Z" id="cloud-rain" sketch:type="MSShapeGroup"></path>
        </g>
    </g>
</svg>

<svg width="32" height="32" viewBox="0 0 32 32" xmlns="http://www.w3.org/2000/svg"><path d="M27 14.415c1.768.77 3 2.533 3 4.585 0 2.756-2.238 5-5 5H8c-2.768 0-5-2.239-5-5 0-2.05 1.24-3.818 3.012-4.588a7 7 0 0 1 12.602-4.594A5.5 5.5 0 0 1 27 14.414zM10.5 25c-.276 0-.5.216-.5.495v2.01c0 .273.232.495.5.495.276 0 .5-.216.5-.495v-2.01a.503.503 0 0 0-.5-.495zm3 2c-.276 0-.5.216-.5.495v2.01c0 .273.232.495.5.495.276 0 .5-.216.5-.495v-2.01a.503.503 0 0 0-.5-.495zm3-2c-.276 0-.5.216-.5.495v2.01c0 .273.232.495.5.495.276 0 .5-.216.5-.495v-2.01a.503.503 0 0 0-.5-.495zm3 2c-.276 0-.5.216-.5.495v2.01c0 .273.232.495.5.495.276 0 .5-.216.5-.495v-2.01a.503.503 0 0 0-.5-.495zm3-2c-.276 0-.5.216-.5.495v2.01c0 .273.232.495.5.495.276 0 .5-.216.5-.495v-2.01a.503.503 0 0 0-.5-.495z" fill="#929292" fill-rule="evenodd"/></svg>
